css/img/menu.svg

<svg width="30" height="30" viewBox="0 0 30 30" fill="none" xmlns="http://www.w3.org/2000/svg">
<path fill-rule="evenodd" clip-rule="evenodd" d="M3.75 7.5C3.75 6.80965 4.30965 6.25 5 6.25H25C25.6904 6.25 26.25 6.80965 26.25 7.5C26.25 8.19035 25.6904 8.75 25 8.75H5C4.30965 8.75 3.75 8.19035 3.75 7.5ZM3.75 15C3.75 14.3096 4.30965 13.75 5 13.75H17.5C18.1904 13.75 18.75 14.3096 18.75 15C18.75 15.6904 18.1904 16.25 17.5 16.25H5C4.30965 16.25 3.75 15.6904 3.75 15ZM3.75 22.5C3.75 21.8096 4.30965 21.25 5 21.25H11.25C11.9403 21.25 12.5 21.8096 12.5 22.5C12.5 23.1904 11.9403 23.75 11.25 23.75H5C4.30965 23.75 3.75 23.1904 3.75 22.5Z" fill="white"/>
</svg>

<?xml version="1.0" encoding="utf-8"?>
<!-- Generator: Adobe Illustrator 25.2.1, SVG Export Plug-In . SVG Version: 6.00 Build 0)  -->
<svg version="1.1" id="Layer_1" xmlns="http://www.w3.org/2000/svg" xmlns:xlink="http://www.w3.org/1999/xlink" x="0px" y="0px"
	 viewBox="0 0 30 30" style="enable-background:new 0 0 30 30;" xml:space="preserve">
<style type="text/css">
	.st0{fill-rule:evenodd;clip-rule:evenodd;fill:#4B4B4B;}
</style>
<path class="st0" d="M3.8,7.5c0-0.7,0.6-1.2,1.2-1.2h20c0.7,0,1.2,0.6,1.2,1.2S25.7,8.8,25,8.8H5C4.3,8.8,3.8,8.2,3.8,7.5z M3.8,15
	c0-0.7,0.6-1.2,1.2-1.2h12.5c0.7,0,1.2,0.6,1.2,1.2s-0.6,1.2-1.2,1.2H5C4.3,16.2,3.8,15.7,3.8,15z M3.8,22.5c0-0.7,0.6-1.2,1.2-1.2
	h6.2c0.7,0,1.2,0.6,1.2,1.2s-0.6,1.2-1.2,1.2H5C4.3,23.8,3.8,23.2,3.8,22.5z"/>
</svg>
